X:078 
T:Hawthorn Jig, The  
B:CRE3.057 (An Sceach)
F:file ID: cre.3/078hawth
R:slip jig
Q:160
M:9/8
L:1/8
K:Em
dBG GBG AFD|dBG GBd e2g|dBG GBG AFD|gbg faf g2z:|
def g3 edB|def g3 a2e|def g3 edB|gbg afa e2e|
def g2g edB|def g3 a2a|bag agf gfe|dBG GBd e2 z |]

%%%

